X: 100400
M: C|
L: 1/8
U: s=!beambr1!
K: Gm
uc |\
ud |\
~"\#"g>dsg<b ~"\#"g>dsg<b | ~"\="f>csf<a ~"\="f>csf<a |\
~"\#"g>dsg<b ~"\#"g>dsg<b | T(.f>.d) {d}(c>A) G2 (.G>.d) |
~"\#"g>dsg<b d(g/a/) bg | ~"\="f>csf<a cf/g/ (a/g/a/^f/) |\
gd T(d>=e) T(f>g){fg}a>g | fd/f/ (d/c/B/A/) (A<G) "_Segue Reel."G "^D.C."|]


